icons/1_Primary/Versio.svg

<svg xmlns="http://www.w3.org/2000/svg" width="1024" height="1024" fill="none">
   <g clip-path="url(#a)">
      <path fill="#73ADA4" d="M512 1024c282.77 0 512-229.23 512-512S794.77 0 512 0 0 229.23 0 512s229.23 512 512 512Z"/>
      <path fill="#fff" d="M355.5 443.9h7.2c17.2 1.7 33.4 10.4 44.4 23.7 9.2 11 14.3 25.2 14.9 39.5.2 2.9.3 5.9 0 8.8H295.2c-.3-7.5.1-15 1.9-22.3 2.5-10.4 7.6-20.1 14.7-28 11.3-12.3 27.1-20.5 43.7-21.7Zm-16.4 32.8c-5 3.9-9.1 9.1-11.2 15.1h47.7c5.1-.1 10.1.1 15.2-.1-2.8-7.1-7.9-13.2-14.4-17.2-5.1-3.1-11.1-4.8-17.1-4.7-7.4 0-14.5 2.5-20.2 6.9Zm220.5-19.3c-7.6 4.7-13.4 12.3-15.4 21-1.2 4.5-1.3 9.2-1 13.9.4 4.6 1.8 9.1 4.2 13 2.3 3.8 5.6 7 9.2 9.6 6.1 4.2 13.1 6.9 20.2 9.2 6.5 2.1 13.1 3.7 19.6 6.1 2.8 1.1 5.6 2.3 7.8 4.4 1.6 1.5 2.7 3.6 2.5 5.8.1 3-2 5.6-4.6 6.9-4.1 2.1-8.9 1.8-13.4 1.6-14.1-1.3-27.6-6.9-39.2-15-.3.4-.7.8-.9 1.3-3.5 7.2-7.1 14.3-10.6 21.5-.3.7-.9 1.4-.7 2.2 3.6 2.8 7.5 5.2 11.5 7.3 13.8 7 29.3 10.1 44.7 9.8 8.4 0 16.9-1.4 24.8-4.4 5.6-2.2 10.9-5.3 15.2-9.5 5.1-5 8.5-11.6 9.6-18.6 1.3-7.9.6-16.3-3.5-23.3-2.7-4.7-6.7-8.5-11.2-11.4-6.1-3.9-12.9-6.4-19.7-8.6-6.9-2.2-14.1-3.9-20.9-6.6-2.6-1.1-5.3-2.4-7.3-4.6-2.3-2.6-2-6.8.1-9.4 1.6-1.9 4.1-2.8 6.5-3.3 4.3-.7 8.6-.3 12.8.5 10.6 2 20.6 6.5 30.1 11.4 3.8-7.3 7.6-14.5 11.4-21.8.6-1.2 1.4-2.3 1.6-3.7-12-6.8-25.4-11.5-39.2-13-8.5-1-17.1-.9-25.6.6-6.4 1.2-12.9 3.4-18.6 7.1Zm-74.3 10.3c-.4.6-.8 1.2-1.3 1.8-.3-2.8-.1-5.7-.1-8.5 0-3.5-.1-6.9.1-10.4-12 .1-24 0-35.9 0v123.9c12 0 24 .1 36 0v-62.7c.6-6.4 3.4-12.7 7.9-17.2 3.9-4.1 9-6.8 14.3-8.4 5.9-1.9 12.2-1.9 18.4-1.6 0-11.5.1-23.1-.1-34.6-10.4 0-21.3 1.9-30 8-3.6 2.6-7 5.8-9.3 9.7ZM774.8 454c7.8-2.8 16.2-4 24.5-4.3 8.8-.2 17.6.7 26.1 3.2 11.8 3.4 22.8 10.3 30.5 20 8.2 10.2 12.2 23.3 12.7 36.3v7.6c-.5 6.6-1.7 13.3-4 19.5-4.3 11.8-12.6 22-23.3 28.6-11.9 7.6-26.3 10.4-40.2 10.4-7.7-.2-15.5-1-22.9-3.3-12.2-3.6-23.5-10.8-31.2-21.1-8.3-10.8-12.1-24.6-12-38.1-.2-13.1 3.1-26.5 10.7-37.3 7-10 17.4-17.5 29.1-21.5Zm22.8 26.4c-6 .8-11.7 3.7-15.7 8.2-5.4 5.8-7.9 13.7-8.3 21.5-.4 7.1.6 14.4 3.9 20.7 2.6 5 6.6 9.4 11.7 11.9 5.9 3 12.9 3.6 19.3 2.1 6.1-1.4 11.6-5.2 15.2-10.3 4.5-6.5 6.3-14.5 6.1-22.4.1-9.8-3.5-20-11.2-26.3-5.8-4.7-13.6-6.5-21-5.4Zm-642.1-28.7c.3.6.6 1.2.8 1.9 13.9 37.5 27.8 75 41.7 112.6 1 2.6 1.8 5.3 3 7.8h39.5c.8-1.7 1.4-3.5 2.1-5.3 10.2-27.5 20.4-55 30.6-82.6 4.2-11.7 8.7-23.2 12.8-34.9-12.2-.1-24.3 0-36.5 0-.8-.2-1.1.6-1.3 1.3-8.7 28-17.5 56-26.2 84-.2.6-.4 1.1-.6 1.6-9-28.9-18-57.9-26.9-86.9-13-.1-25.9 0-38.9-.1v.6h-.1Zm518.2 122.2c2.5.1 5 0 7.5.1 9.6 0 19.2.1 28.8 0V451.3c-12.1 0-24.2-.1-36.4 0 .1 40.8.1 81.7.1 122.6ZM305 542.2c-1.7 1-3.5 1.9-5.1 3.1 2.5 5.1 6.1 9.6 9.9 13.8 9.9 10.6 23.3 17.7 37.5 20.1 2 .3 4.1.5 6.1.9h10c13.4-1.1 26.5-6 36.9-14.5 5-4 9.5-8.7 13.2-13.9 1.4-2.1 2.8-4.1 3.8-6.4-2.7-1.9-5.6-3.3-8.4-5-3.4-1.9-6.8-3.9-10.2-5.8-1.8-1-3.5-2.2-5.4-2.9-1.9 3.9-4.6 7.3-7.6 10.3-7.2 7-17.4 10.4-27.4 10.2-7.4.1-15-1.8-21.3-5.8-4.6-2.8-8.4-6.8-11.3-11.4-.6-1-1.1-2.1-1.8-3-.1 0-.3-.1-.4-.1-1.3.3-2.4 1.2-3.6 1.9-4.9 2.8-9.9 5.6-14.9 8.5Z"/>
   </g>
   <defs>
      <clipPath id="a">
         <path fill="#fff" d="M0 0h1024v1024H0z"/>
      </clipPath>
   </defs>
</svg>

<svg width="1024" height="1024" viewBox="0 0 1024 1024" fill="none" xmlns="http://www.w3.org/2000/svg">
<g clip-path="url(#clip0_2_3837)">
<path d="M512 1024C794.77 1024 1024 794.77 1024 512C1024 229.23 794.77 0 512 0C229.23 0 0 229.23 0 512C0 794.77 229.23 1024 512 1024Z" fill="#73ADA4"/>
<path d="M355.5 443.9H362.7C379.9 445.6 396.1 454.3 407.1 467.6C416.3 478.6 421.4 492.8 422 507.1C422.2 510 422.3 513 422 515.9H295.2C294.9 508.4 295.3 500.9 297.1 493.6C299.6 483.2 304.7 473.5 311.8 465.6C323.1 453.3 338.9 445.1 355.5 443.9ZM339.1 476.7C334.1 480.6 330 485.8 327.9 491.8H375.6C380.7 491.7 385.7 491.9 390.8 491.7C388 484.6 382.9 478.5 376.4 474.5C371.3 471.4 365.3 469.7 359.3 469.8C351.9 469.8 344.8 472.3 339.1 476.7ZM559.6 457.4C552 462.1 546.2 469.7 544.2 478.4C543 482.9 542.9 487.6 543.2 492.3C543.6 496.9 545 501.4 547.4 505.3C549.7 509.1 553 512.3 556.6 514.9C562.7 519.1 569.7 521.8 576.8 524.1C583.3 526.2 589.9 527.8 596.4 530.2C599.2 531.3 602 532.5 604.2 534.6C605.8 536.1 606.9 538.2 606.7 540.4C606.8 543.4 604.7 546 602.1 547.3C598 549.4 593.2 549.1 588.7 548.9C574.6 547.6 561.1 542 549.5 533.9C549.2 534.3 548.8 534.7 548.6 535.2C545.1 542.4 541.5 549.5 538 556.7C537.7 557.4 537.1 558.1 537.3 558.9C540.9 561.7 544.8 564.1 548.8 566.2C562.6 573.2 578.1 576.3 593.5 576C601.9 576 610.4 574.6 618.3 571.6C623.9 569.4 629.2 566.3 633.5 562.1C638.6 557.1 642 550.5 643.1 543.5C644.4 535.6 643.7 527.2 639.6 520.2C636.9 515.5 632.9 511.7 628.4 508.8C622.3 504.9 615.5 502.4 608.7 500.2C601.8 498 594.6 496.3 587.8 493.6C585.2 492.5 582.5 491.2 580.5 489C578.2 486.4 578.5 482.2 580.6 479.6C582.2 477.7 584.7 476.8 587.1 476.3C591.4 475.6 595.7 476 599.9 476.8C610.5 478.8 620.5 483.3 630 488.2C633.8 480.9 637.6 473.7 641.4 466.4C642 465.2 642.8 464.1 643 462.7C631 455.9 617.6 451.2 603.8 449.7C595.3 448.7 586.7 448.8 578.2 450.3C571.8 451.5 565.3 453.7 559.6 457.4ZM485.3 467.7C484.9 468.3 484.5 468.9 484 469.5C483.7 466.7 483.9 463.8 483.9 461C483.9 457.5 483.8 454.1 484 450.6C472 450.7 460 450.6 448.1 450.6V574.5C460.1 574.5 472.1 574.6 484.1 574.5V511.8C484.7 505.4 487.5 499.1 492 494.6C495.9 490.5 501 487.8 506.3 486.2C512.2 484.3 518.5 484.3 524.7 484.6C524.7 473.1 524.8 461.5 524.6 450C514.2 450 503.3 451.9 494.6 458C491 460.6 487.6 463.8 485.3 467.7ZM774.8 454C782.6 451.2 791 450 799.3 449.7C808.1 449.5 816.9 450.4 825.4 452.9C837.2 456.3 848.2 463.2 855.9 472.9C864.1 483.1 868.1 496.2 868.6 509.2V516.8C868.1 523.4 866.9 530.1 864.6 536.3C860.3 548.1 852 558.3 841.3 564.9C829.4 572.5 815 575.3 801.1 575.3C793.4 575.1 785.6 574.3 778.2 572C766 568.4 754.7 561.2 747 550.9C738.7 540.1 734.9 526.3 735 512.8C734.8 499.7 738.1 486.3 745.7 475.5C752.7 465.5 763.1 458 774.8 454ZM797.6 480.4C791.6 481.2 785.9 484.1 781.9 488.6C776.5 494.4 774 502.3 773.6 510.1C773.2 517.2 774.2 524.5 777.5 530.8C780.1 535.8 784.1 540.2 789.2 542.7C795.1 545.7 802.1 546.3 808.5 544.8C814.6 543.4 820.1 539.6 823.7 534.5C828.2 528 830 520 829.8 512.1C829.9 502.3 826.3 492.1 818.6 485.8C812.8 481.1 805 479.3 797.6 480.4ZM155.5 451.7C155.8 452.3 156.1 452.9 156.3 453.6C170.2 491.1 184.1 528.6 198 566.2C199 568.8 199.8 571.5 201 574H240.5C241.3 572.3 241.9 570.5 242.6 568.7C252.8 541.2 263 513.7 273.2 486.1C277.4 474.4 281.9 462.9 286 451.2C273.8 451.1 261.7 451.2 249.5 451.2C248.7 451 248.4 451.8 248.2 452.5C239.5 480.5 230.7 508.5 222 536.5C221.8 537.1 221.6 537.6 221.4 538.1C212.4 509.2 203.4 480.2 194.5 451.2C181.5 451.1 168.6 451.2 155.6 451.1V451.7H155.5ZM673.7 573.9C676.2 574 678.7 573.9 681.2 574C690.8 574 700.4 574.1 710 574V451.3C697.9 451.3 685.8 451.2 673.6 451.3C673.7 492.1 673.7 533 673.7 573.9ZM305 542.2C303.3 543.2 301.5 544.1 299.9 545.3C302.4 550.4 306 554.9 309.8 559.1C319.7 569.7 333.1 576.8 347.3 579.2C349.3 579.5 351.4 579.7 353.4 580.1H363.4C376.8 579 389.9 574.1 400.3 565.6C405.3 561.6 409.8 556.9 413.5 551.7C414.9 549.6 416.3 547.6 417.3 545.3C414.6 543.4 411.7 542 408.9 540.3C405.5 538.4 402.1 536.4 398.7 534.5C396.9 533.5 395.2 532.3 393.3 531.6C391.4 535.5 388.7 538.9 385.7 541.9C378.5 548.9 368.3 552.3 358.3 552.1C350.9 552.2 343.3 550.3 337 546.3C332.4 543.5 328.6 539.5 325.7 534.9C325.1 533.9 324.6 532.8 323.9 531.9C323.8 531.9 323.6 531.8 323.5 531.8C322.2 532.1 321.1 533 319.9 533.7C315 536.5 310 539.3 305 542.2Z" fill="white"/>
</g>
<defs>
<clipPath id="clip0_2_3837">
<rect width="1024" height="1024" fill="white"/>
</clipPath>
</defs>
</svg>
